X: 3
T: The Belfast
R: hornpipe
M: 4/4
L: 1/8
K: Dmaj
a2g|f2a d2f A2d F2A|D2F A2d f3 e2f|g2b e2g c2e A2F|G2A B2G E3 a2g|f2a d2f A2d F2A|D2F A2d f3 e2f|g2f e2d c2A B2c|d3 f3 d3:||:D3|G2F G2A B2c d2e|f2g f2e d2c d2B|A3 f3 f2e f3|G3 e3 e2d e3|G2F G2A B2c d2e|f2g f2e d2c d2B|A2f e2d c2A B2c|d3 f3 d3:||:a2g|fgf efe ded cdc|BcB ABA G3 b2a|gag fgf efe ded|cdc BcB A3 a2g|fgf efe ded cdc|BcB ABA GAG FGF|E2f e2d c2A B2c|d3 f3 d3:|


Tune 4	Setting 29642

